symbols-de/shields/motorway_11x4_z16.svg

<?xml version="1.0" encoding="UTF-8" standalone="no"?>
<svg
   xmlns:dc="http://purl.org/dc/elements/1.1/"
   xmlns:cc="http://creativecommons.org/ns#"
   xmlns:rdf="http://www.w3.org/1999/02/22-rdf-syntax-ns#"
   xmlns:svg="http://www.w3.org/2000/svg"
   xmlns="http://www.w3.org/2000/svg"
   xmlns:sodipodi="http://sodipodi.sourceforge.net/DTD/sodipodi-0.dtd"
   xmlns:inkscape="http://www.inkscape.org/namespaces/inkscape"
   width="100%"
   height="100%"
   viewBox="0 0 81.0 46.0"
   id="svg2"
   version="1.1"
   inkscape:version="0.91 r13725"
   sodipodi:docname="autobahn_11x4_z16.svg">
  <metadata
     id="metadata9">
    <rdf:RDF>
      <cc:Work
         rdf:about="">
        <dc:format>image/svg+xml</dc:format>
        <dc:type
           rdf:resource="http://purl.org/dc/dcmitype/StillImage" />
        <dc:title></dc:title>
      </cc:Work>
    </rdf:RDF>
  </metadata>
  <defs
     id="defs7" />
  <sodipodi:namedview
     pagecolor="#ffffff"
     bordercolor="#666666"
     borderopacity="1"
     objecttolerance="10"
     gridtolerance="10"
     guidetolerance="10"
     inkscape:pageopacity="0"
     inkscape:pageshadow="2"
     inkscape:window-width="1190"
     inkscape:window-height="760"
     id="namedview5"
     showgrid="false"
     inkscape:zoom="4.3580247"
     inkscape:cx="40.5"
     inkscape:cy="23.114731"
     inkscape:window-x="161"
     inkscape:window-y="1"
     inkscape:window-maximized="0"
     inkscape:current-layer="svg2" />
  <path
     style="fill:#365eaf;fill-opacity:1;stroke:#0528a2;stroke-width:1;stroke-miterlimit:4;stroke-dasharray:none;stroke-opacity:1"
     d="m 40.499998,0.500004 c -0.573469,0 -0.859375,0.0036 -0.859375,0.01286 L 1.792065,2.455036 C 0.93185,2.548166 0.5,2.68894 0.5,2.875196 c 0,13.416539 0,26.833077 0,40.249616 0,0.186255 0.43185,0.327035 1.292065,0.42016 l 37.848558,1.942168 c 0,0.0093 0.285906,0.01286 0.859375,0.01286 0.573479,0 0.859375,-0.0036 0.859375,-0.01286 l 37.848559,-1.942169 c 0.860219,-0.09313 1.292065,-0.233905 1.292065,-0.42016 0,-13.416538 0,-26.833078 0,-40.249616 0,-0.186256 -0.431846,-0.327035 -1.292065,-0.42016 L 41.359373,0.512867 c 0,-0.0093 -0.285906,-0.01286 -0.859375,-0.01286 z"
     id="path6"
     inkscape:connector-curvature="0"
     sodipodi:nodetypes="sccccccsccccccs" />
</svg>

<?xml version="1.0" encoding="UTF-8"?>
<svg xmlns="http://www.w3.org/2000/svg" xmlns:xlink="http://www.w3.org/1999/xlink" width="77pt" height="62pt" viewBox="0 0 77 62" version="1.1">
<g id="surface1">
<path style="fill-rule:nonzero;fill:rgb(21.176471%,36.862745%,68.627451%);fill-opacity:1;stroke-width:1;stroke-linecap:butt;stroke-linejoin:miter;stroke:rgb(1.960784%,15.686275%,63.529412%);stroke-opacity:1;stroke-miterlimit:4;" d="M 40.5 0.501386 C 39.924716 0.501386 39.641183 0.504284 39.641183 0.512979 L 1.791599 2.454763 C 0.932782 2.547505 0.501319 2.689516 0.501319 2.875 C 0.501319 16.290701 0.501319 29.709299 0.501319 43.125 C 0.501319 43.310484 0.932782 43.452495 1.791599 43.545237 L 39.641183 45.487021 C 39.641183 45.495716 39.924716 45.498614 40.5 45.498614 C 41.075284 45.498614 41.358817 45.495716 41.358817 45.487021 L 79.208401 43.545237 C 80.067218 43.452495 80.498681 43.310484 80.498681 43.125 C 80.498681 29.709299 80.498681 16.290701 80.498681 2.875 C 80.498681 2.689516 80.067218 2.547505 79.208401 2.454763 L 41.358817 0.512979 C 41.358817 0.504284 41.075284 0.501386 40.5 0.501386 Z M 40.5 0.501386 " transform="matrix(0.950617,0,0,1.347826,0,0)"/>
</g>
</svg>
